X: 1001
T: Come Now Or Stay
N:"Collected by F.O'Neill"
B:O'Neill's 1001
Z:Transcribed by Dan G. Petersen, dangp@post6.tele.dk
M:6/8
L:1/8
K:D
(F/G/)|ABA d2f|afb afd|(e/f/g).e (d/e/f).d|ecA AFG|
ABA d2f|afb afd|(f/g/a).f gec|ded d2:|
f|edc BAG|F2D GFE|A2F Bcd|cee egf|
edc BAG|F2D GFE|ABd (e/f/g).e|fdd d2:|


